;FLAVOR:Marlin
;TIME:50710
;Filament used: 37.3134m
;Layer height: 0.2
;MINX:15.5
;MINY:45.5
;MINZ:0.2
;MAXX:204.5
;MAXY:174.5
;MAXZ:50
;Generated with Cura_SteamEngine 4.5.0
M140 S70
M105
M190 S70
M104 S200
M105
M109 S200
M82 ;absolute extrusion mode
M201 X500.00 Y500.00 Z100.00 E5000.00 ;Setup machine max acceleration
M203 X500.00 Y500.00 Z10.00 E50.00 ;Setup machine max feedrate
M204 P500.00 R1000.00 T500.00 ;Setup Print/Retract/Travel acceleration
M205 X8.00 Y8.00 Z0.40 E5.00 ;Setup Jerk
M220 S100 ;Reset Feedrate
M221 S100 ;Reset Flowrate

G28 ;Home

G92 E0 ;Reset Extruder
G1 Z2.0 F3000 ;Move Z Axis up
G1 X10.1 Y20 Z0.28 F5000.0 ;Move to start position
G1 X10.1 Y200.0 Z0.28 F1500.0 E15 ;Draw the first line
G1 X10.4 Y200.0 Z0.28 F5000.0 ;Move to side a little
G1 X10.4 Y20 Z0.28 F1500.0 E30 ;Draw the second line
G92 E0 ;Reset Extruder
G1 Z2.0 F3000 ;Move Z Axis up

G92 E0
G92 E0
G1 F2700 E-5
;LAYER_COUNT:250
;LAYER:0
M107
G0 F6000 X22.648 Y47.249 Z0.2
;TYPE:SKIRT
G1 F2700 E0
G1 F1200 X23.101 Y47.044 E0.01654
G1 X24.221 Y46.576 E0.05691
G1 X24.91 Y46.3 E0.0816
G1 X25.794 Y45.988 E0.11278
G1 X26.702 Y45.754 E0.14396
G1 X27.627 Y45.597 E0.17517
G1 X28.819 Y45.512 E0.21492
G1 X29.67 Y45.5 E0.24322
G1 X190.293 Y45.5 E5.58557
G1 X190.451 Y45.501 E5.59082
G1 X191.149 Y45.511 E5.61404
G1 X192.085 Y45.565 E5.64522
G1 X193.013 Y45.697 E5.6764
G1 X193.927 Y45.909 E5.7076
G1 X194.991 Y46.263 E5.7449
G1 X195.777 Y46.572 E5.77299
G1 X196.435 Y46.846 E5.7967
G1 X197.109 Y47.136 E5.8211
G1 X197.954 Y47.543 E5.8523
G1 X198.761 Y48.02 E5.88348
G1 X199.524 Y48.565 E5.91466
G1 X200.239 Y49.172 E5.94586
G1 X200.899 Y49.839 E5.97707
G1 X201.5 Y50.559 E6.00826
G1 X202.037 Y51.328 E6.03946
G1 X202.507 Y52.139 E6.07063
G1 X202.847 Y52.851 E6.09688
G1 X203.141 Y53.529 E6.12146
G1 X203.444 Y54.264 E6.1479
G1 X203.698 Y54.899 E6.17064
G1 X204.009 Y55.784 E6.20184
G1 X204.243 Y56.692 E6.23303
G1 X204.4 Y57.616 E6.2642
G1 X204.483 Y58.752 E6.30209
G1 X204.498 Y59.6 E6.3303
G1 X204.5 Y160.294 E9.67939
G1 X204.499 Y160.452 E9.68465
G1 X204.489 Y161.149 E9.70783
G1 X204.435 Y162.085 E9.73902
G1 X204.302 Y163.014 E9.77023
G1 X204.091 Y163.927 E9.8014
G1 X203.74 Y164.984 E9.83844
G1 X203.439 Y165.748 E9.86575
G1 X203.174 Y166.387 E9.88876
G1 X202.871 Y167.093 E9.91431
G1 X202.465 Y167.939 E9.94552
G1 X201.988 Y168.746 E9.9767
G1 X201.444 Y169.51 E10.0079
G1 X200.837 Y170.225 E10.03909
G1 X200.172 Y170.886 E10.07028
G1 X199.452 Y171.487 E10.10147
G1 X198.684 Y172.025 E10.13266
G1 X197.873 Y172.496 E10.16385
G1 X197.334 Y172.76 E10.18381
G1 X196.555 Y173.102 E10.21211
G1 X195.779 Y173.424 E10.24006
G1 X195.09 Y173.7 E10.26474
G1 X194.206 Y174.012 E10.29592
G1 X193.298 Y174.246 E10.32711
G1 X192.373 Y174.403 E10.35831
G1 X191.181 Y174.488 E10.39806
G1 X190.33 Y174.5 E10.42637
G1 X29.75 Y174.5 E15.76728
G1 X29.593 Y174.499 E15.7725
G1 X28.894 Y174.489 E15.79575
G1 X27.957 Y174.435 E15.82697
G1 X27.029 Y174.303 E15.85815
G1 X26.115 Y174.091 E15.88935
G1 X25.349 Y173.848 E15.91608
G1 X25.1 Y173.759 E15.92488
G1 X24.7 Y173.607 E15.93911
G1 X23.596 Y173.162 E15.9787
G1 X22.973 Y172.899 E16.00119
G1 X22.125 Y172.498 E16.03239
G1 X21.315 Y172.026 E16.06357
G1 X20.547 Y171.486 E16.0948
G1 X19.829 Y170.884 E16.12596
G1 X19.164 Y170.222 E16.15717
G1 X18.559 Y169.506 E16.18835
G1 X18.016 Y168.741 E16.21955
G1 X17.54 Y167.933 E16.25074
G1 X17.193 Y167.218 E16.27717
G1 X16.764 Y166.242 E16.31263
G1 X16.533 Y165.678 E16.3329
G1 X16.293 Y165.075 E16.35449
G1 X15.983 Y164.189 E16.38571
G1 X15.751 Y163.281 E16.41688
G1 X15.596 Y162.356 E16.44807
G1 X15.515 Y161.206 E16.48642
G1 X15.502 Y160.4 E16.51323
G1 X15.5 Y59.706 E19.86233
G1 X15.501 Y59.548 E19.86758
G1 X15.511 Y58.852 E19.89073
G1 X15.565 Y57.916 E19.92192
G1 X15.698 Y56.987 E19.95313
G1 X15.909 Y56.074 E19.9843
G1 X16.263 Y55.011 E20.02156
G1 X16.58 Y54.204 E20.0504
G1 X16.861 Y53.529 E20.07472
G1 X17.139 Y52.885 E20.09805
G1 X17.547 Y52.041 E20.12923
G1 X18.025 Y51.234 E20.16042
G1 X18.571 Y50.471 E20.19163
G1 X19.179 Y49.758 E20.22279
G1 X19.846 Y49.099 E20.25398
G1 X20.567 Y48.498 E20.2852
G1 X21.337 Y47.962 E20.3164
G1 X22.149 Y47.493 E20.34759
G1 X22.648 Y47.249 E20.36607
G0 F6000 X22.815 Y47.612
G1 F1200 X23.598 Y47.267 E20.39453
G1 X24.369 Y46.947 E20.42229
G1 X25.058 Y46.671 E20.44698
G1 X25.927 Y46.366 E20.47761
G1 X26.819 Y46.138 E20.50823
G1 X27.727 Y45.988 E20.53884
G1 X28.826 Y45.912 E20.57548
G1 X29.67 Y45.9 E20.60355
G1 X190.293 Y45.9 E25.9459
G1 X190.445 Y45.901 E25.95095
G1 X191.143 Y45.911 E25.97417
G1 X192.062 Y45.964 E26.00479
G1 X192.973 Y46.097 E26.03541
G1 X193.869 Y46.308 E26.06602
G1 X194.845 Y46.636 E26.10027
G1 X195.624 Y46.942 E26.12811
G1 X196.276 Y47.213 E26.15159
G1 X196.95 Y47.503 E26.176
G1 X197.78 Y47.903 E26.20664
G1 X198.571 Y48.374 E26.23726
G1 X199.318 Y48.912 E26.26788
G1 X200.016 Y49.512 E26.29849
G1 X200.659 Y50.171 E26.32912
G1 X201.243 Y50.883 E26.35974
G1 X201.763 Y51.643 E26.39037
G1 X202.214 Y52.445 E26.42097
G1 X202.481 Y53.011 E26.44179
G1 X202.771 Y53.682 E26.4661
G1 X203.073 Y54.412 E26.49238
G1 X203.327 Y55.047 E26.51513
G1 X203.631 Y55.916 E26.54575
G1 X203.859 Y56.808 E26.57637
G1 X204.009 Y57.716 E26.60698
G1 X204.083 Y58.76 E26.64179
G1 X204.098 Y59.6 E26.66973
G1 X204.1 Y160.294 E30.01883
G1 X204.099 Y160.446 E30.02388
G1 X204.089 Y161.143 E30.04707
G1 X204.036 Y162.062 E30.07768
G1 X203.903 Y162.973 E30.10831
G1 X203.692 Y163.869 E30.13892
G1 X203.367 Y164.839 E30.17295
G1 X203.07 Y165.596 E30.19999
G1 X202.807 Y166.23 E30.22282
G1 X202.504 Y166.936 E30.24837
G1 X202.104 Y167.765 E30.27899
G1 X201.634 Y168.557 E30.30962
G1 X201.097 Y169.305 E30.34025
G1 X200.498 Y170.003 E30.37084
G1 X199.84 Y170.647 E30.40146
G1 X199.128 Y171.231 E30.43209
G1 X198.369 Y171.752 E30.46271
G1 X197.168 Y172.396 E30.50804
G1 X196.402 Y172.733 E30.53587
G1 X195.631 Y173.053 E30.56363
G1 X194.942 Y173.329 E30.58832
G1 X194.073 Y173.634 E30.61895
G1 X193.181 Y173.862 E30.64957
G1 X192.273 Y174.012 E30.68018
G1 X191.174 Y174.088 E30.71682
G1 X190.33 Y174.1 E30.7449
G1 X29.75 Y174.1 E36.08581
G1 X29.598 Y174.099 E36.09087
G1 X28.899 Y174.089 E36.11412
G1 X27.98 Y174.036 E36.14473
G1 X27.069 Y173.903 E36.17536
G1 X26.173 Y173.692 E36.20597
G1 X25.483 Y173.472 E36.23006
G1 X25.234 Y173.383 E36.23885
G1 X24.849 Y173.236 E36.25256
G1 X23.751 Y172.793 E36.29194
G1 X23.128 Y172.53 E36.31443
G1 X22.297 Y172.136 E36.34502
G1 X21.502 Y171.671 E36.37565
G1 X20.751 Y171.138 E36.40628
G1 X20.049 Y170.543 E36.43689
G1 X19.401 Y169.888 E36.46754
G1 X18.813 Y169.18 E36.49815
G1 X18.288 Y168.424 E36.52876
G1 X17.831 Y167.625 E36.55937
G1 X17.558 Y167.056 E36.58036
G1 X17.134 Y166.089 E36.61548
G1 X16.904 Y165.53 E36.63559
G1 X16.664 Y164.927 E36.65717
G1 X16.361 Y164.057 E36.68781
G1 X16.135 Y163.165 E36.71842
G1 X15.987 Y162.256 E36.74905
G1 X15.915 Y161.199 E36.78429
G1 X15.902 Y160.4 E36.81087
G1 X15.9 Y59.706 E40.15996
G1 X15.901 Y59.554 E40.16502
G1 X15.911 Y58.858 E40.18817
G1 X15.964 Y57.939 E40.21879
G1 X16.097 Y57.028 E40.24941
G1 X16.308 Y56.131 E40.28006
G1 X16.635 Y55.156 E40.31426
G1 X16.95 Y54.357 E40.34283
G1 X17.228 Y53.688 E40.36692
G1 X17.506 Y53.044 E40.39025
G1 X17.907 Y52.215 E40.42088
G1 X18.379 Y51.425 E40.45149
G1 X18.917 Y50.678 E40.48211
G1 X19.519 Y49.981 E40.51274
G1 X20.178 Y49.338 E40.54336
G1 X20.891 Y48.755 E40.574
G1 X21.651 Y48.237 E40.60459
G1 X22.815 Y47.612 E40.64853
G0 F6000 X22.982 Y47.976
G1 F1200 X23.416 Y47.78 E40.66437
G1 X23.752 Y47.636 E40.67653
G1 X24.518 Y47.318 E40.70411
G1 X25.207 Y47.042 E40.7288
G1 X26.059 Y46.744 E40.75882
G1 X26.935 Y46.522 E40.78888
G1 X27.827 Y46.379 E40.81892
G1 X28.833 Y46.312 E40.85246
G1 X29.67 Y46.3 E40.8803
G1 X190.293 Y46.3 E46.22264
G1 X190.439 Y46.301 E46.2275
G1 X191.137 Y46.311 E46.25072
G1 X192.039 Y46.364 E46.28077
G1 X192.932 Y46.496 E46.31079
G1 X193.81 Y46.707 E46.34083
G1 X194.7 Y47.008 E46.37207
G1 X195.471 Y47.311 E46.39963
G1 X196.118 Y47.58 E46.42293
G1 X196.792 Y47.87 E46.44734
G1 X197.605 Y48.264 E46.47739
G1 X198.38 Y48.727 E46.50741
G1 X199.111 Y49.258 E46.53746
G1 X199.792 Y49.851 E46.5675
G1 X200.418 Y50.502 E46.59753
G1 X200.984 Y51.206 E46.62758
G1 X201.486 Y51.957 E46.65762
G1 X201.919 Y52.749 E46.68765
G1 X202.114 Y53.17 E46.70308
G1 X202.402 Y53.836 E46.72721
G1 X202.701 Y54.561 E46.75329
G1 X202.955 Y55.196 E46.77604
G1 X203.253 Y56.048 E46.80606
G1 X203.475 Y56.924 E46.83612
G1 X203.618 Y57.816 E46.86617
G1 X203.683 Y58.769 E46.89794
G1 X203.698 Y59.6 E46.92558
G1 X203.7 Y160.294 E50.27468
G1 X203.699 Y160.44 E50.27953
G1 X203.689 Y161.137 E50.30272
G1 X203.636 Y162.039 E50.33277
G1 X203.504 Y162.932 E50.36279
G1 X203.293 Y163.81 E50.39283
G1 X202.994 Y164.694 E50.42387
G1 X202.7 Y165.443 E50.45063
G1 X202.439 Y166.072 E50.47328
G1 X202.136 Y166.778 E50.49883
G1 X201.744 Y167.591 E50.52885
G1 X201.281 Y168.367 E50.55891
G1 X200.751 Y169.098 E50.58894
G1 X200.159 Y169.78 E50.61897
G1 X199.508 Y170.406 E50.64901
G1 X198.805 Y170.973 E50.67905
G1 X198.054 Y171.475 E50.7091
G1 X197.002 Y172.033 E50.7487
G1 X196.584 Y172.22 E50.76394
G1 X196.248 Y172.364 E50.77609
G1 X195.482 Y172.682 E50.80368
G1 X194.793 Y172.958 E50.82837
G1 X193.941 Y173.256 E50.85839
G1 X193.065 Y173.478 E50.88844
G1 X192.173 Y173.621 E50.91849
G1 X191.167 Y173.688 E50.95202
G1 X190.33 Y173.7 E50.97987
G1 X29.75 Y173.7 E56.32078
G1 X29.604 Y173.699 E56.32563
G1 X28.905 Y173.689 E56.34889
G1 X28.004 Y173.636 E56.3789
G1 X27.11 Y173.504 E56.40896
G1 X26.232 Y173.293 E56.439
G1 X25.618 Y173.095 E56.46045
G1 X25.369 Y173.006 E56.46925
G1 X24.998 Y172.865 E56.48245
G1 X23.907 Y172.425 E56.52157
G1 X23.284 Y172.162 E56.54407
G1 X22.468 Y171.774 E56.57412
G1 X21.69 Y171.316 E56.60415
G1 X20.956 Y170.791 E56.63416
G1 X20.27 Y170.202 E56.66423
G1 X19.64 Y169.556 E56.69425
G1 X19.069 Y168.856 E56.72429
G1 X18.563 Y168.108 E56.75433
G1 X18.124 Y167.319 E56.78436
G1 X17.924 Y166.894 E56.79998
G1 X17.504 Y165.937 E56.83474
G1 X17.276 Y165.382 E56.8547
G1 X17.036 Y164.779 E56.87628
G1 X16.74 Y163.926 E56.90631
G1 X16.52 Y163.05 E56.93635
G1 X16.378 Y162.158 E56.9664
G1 X16.315 Y161.192 E56.99859
G1 X16.302 Y160.4 E57.02494
G1 X16.3 Y59.706 E60.37404
G1 X16.301 Y59.559 E60.37893
G1 X16.311 Y58.863 E60.40208
G1 X16.364 Y57.962 E60.4321
G1 X16.496 Y57.069 E60.46212
G1 X16.707 Y56.19 E60.49219
G1 X17.008 Y55.302 E60.52337
G1 X17.319 Y54.51 E60.55167
G1 X17.595 Y53.846 E60.57559
G1 X17.873 Y53.202 E60.59892
G1 X18.268 Y52.39 E60.62895
G1 X18.732 Y51.616 E60.65897
G1 X19.263 Y50.885 E60.68902
G1 X19.857 Y50.205 E60.71905
G1 X20.509 Y49.58 E60.74909
G1 X21.213 Y49.014 E60.77913
G1 X21.965 Y48.514 E60.80917
G1 X22.982 Y47.976 E60.84743
G1 F2700 E55.84743
;MESH:case.stl
G0 F6000 X183.859 Y65.55
G0 X182.264 Y66.646
G0 X184.308 Y68.032
;TYPE:WALL-INNER
G1 F2700 E60.84743
G1 F1200 X186.939 Y67.432 E60.93719
G1 X188.111 Y65.002 E61.02692
G1 X187.065 Y62.83 E61.1071
G1 X186.659 Y62.503 E61.12444
G1 X184.308 Y61.968 E61.20463
G1 X182.198 Y63.65 E61.29438
G1 X182.198 Y66.054 E61.37434
G1 X182.418 Y66.525 E61.39163
G1 X184.308 Y68.032 E61.47203
G0 F6000 X184.407 Y67.599
G1 F1200 X186.662 Y67.085 E61.54895
G1 X187.667 Y65.002 E61.62588
G1 X186.744 Y63.085 E61.69664
G1 X186.48 Y62.873 E61.7079
G1 X184.407 Y62.401 E61.77862
G1 X182.598 Y63.843 E61.85556
G1 X182.598 Y65.965 E61.92614
G1 X182.741 Y66.271 E61.93737
G1 X184.407 Y67.599 E62.00823
G0 F6000 X184.506 Y67.166
;TYPE:WALL-OUTER
G1 F1200 X186.385 Y66.738 E62.07233
G1 X187.223 Y65.002 E62.13645
G1 X186.423 Y63.34 E62.19779
G1 X186.302 Y63.243 E62.20295
G1 X184.506 Y62.834 E62.26422
G1 X182.998 Y64.036 E62.32836
G1 X182.998 Y65.876 E62.38956
G1 X183.064 Y66.017 E62.39473
G1 X184.506 Y67.166 E62.45606
G1 F2700 E57.45606
G0 F6000 X184.319 Y67.4
G0 X182.027 Y66.093
G0 X183.859 Y65.55
G0 X183.859 Y155.55
G0 X182.027 Y156.093
G0 X184.308 Y158.032
;TYPE:WALL-INNER
G1 F2700 E62.45606
G1 F1200 X186.939 Y157.432 E62.54581
G1 X188.111 Y155.002 E62.63554
G1 X187.065 Y152.83 E62.71573
G1 X186.659 Y152.503 E62.73306
G1 X184.308 Y151.968 E62.81326
G1 X182.198 Y153.65 E62.90301
G1 X182.198 Y156.054 E62.98296
G1 X182.418 Y156.525 E63.00025
G1 X184.308 Y158.032 E63.08065
G0 F6000 X184.407 Y157.599
G1 F1200 X186.662 Y157.085 E63.15758
G1 X187.667 Y155.002 E63.2345
G1 X186.744 Y153.085 E63.30527
G1 X186.48 Y152.873 E63.31653
G1 X184.407 Y152.401 E63.38724
G1 X182.598 Y153.843 E63.46418
G1 X182.598 Y155.965 E63.53476
G1 X182.741 Y156.271 E63.546
G1 X184.407 Y157.599 E63.61686
G0 F6000 X184.506 Y157.166
;TYPE:WALL-OUTER
G1 F1200 X186.385 Y156.738 E63.68096
G1 X187.223 Y155.002 E63.74507
G1 X186.423 Y153.34 E63.80642
G1 X186.302 Y153.243 E63.81158
G1 X184.506 Y152.834 E63.87284
G1 X182.998 Y154.036 E63.93698
G1 X182.998 Y155.876 E63.99818
G1 X183.064 Y156.017 E64.00336
G1 X184.506 Y157.166 E64.06468
G1 F2700 E59.06468
G0 F6000 X184.319 Y157.4
G0 X182.027 Y156.093
G0 X183.859 Y155.55
G0 X158.859 Y135.55
G0 X157.027 Y136.093
G0 X159.308 Y138.032
;TYPE:WALL-INNER
G1 F2700 E64.06468
G1 F1200 X161.939 Y137.432 E64.15444
G1 X163.111 Y135.002 E64.24417
G1 X162.065 Y132.83 E64.32435
G1 X161.659 Y132.503 E64.34169
G1 X159.308 Y131.968 E64.42188
G1 X157.198 Y133.65 E64.51163
G1 X157.198 Y136.054 E64.59159
G1 X157.418 Y136.525 E64.60888
G1 X159.308 Y138.032 E64.68928
G0 F6000 X159.407 Y137.599
G1 F1200 X161.662 Y137.085 E64.7662
G1 X162.667 Y135.002 E64.84313
G1 X161.744 Y133.085 E64.91389
G1 X161.48 Y132.873 E64.92515
G1 X159.407 Y132.401 E64.99586
G1 X157.598 Y133.843 E65.07281
G1 X157.598 Y135.965 E65.14339
G1 X157.741 Y136.271 E65.15462
G1 X159.407 Y137.599 E65.22548
G0 F6000 X159.506 Y137.166
;TYPE:WALL-OUTER
G1 F1200 X161.385 Y136.738 E65.28958
G1 X162.223 Y135.002 E65.35369
G1 X161.423 Y133.34 E65.41504
G1 X161.302 Y133.243 E65.4202
G1 X159.506 Y132.834 E65.48147
G1 X157.998 Y134.036 E65.54561
G1 X157.998 Y135.876 E65.6068
G1 X158.064 Y136.017 E65.61198
G1 X159.506 Y137.166 E65.67331
G1 F2700 E60.67331
G0 F6000 X159.319 Y137.4
G0 X157.027 Y136.093
G0 X158.859 Y135.55
G0 X158.859 Y110.55
G0 X157.027 Y111.093
G0 X159.308 Y113.032
;TYPE:WALL-INNER
G1 F2700 E65.67331
G1 F1200 X161.939 Y112.432 E65.76306
G1 X163.111 Y110.002 E65.85279
G1 X162.065 Y107.83 E65.93297
G1 X161.659 Y107.503 E65.95031
G1 X159.308 Y106.968 E66.03051
G1 X157.198 Y108.65 E66.12026
G1 X157.198 Y111.054 E66.20021
G1 X157.418 Y111.525 E66.2175
G1 X159.308 Y113.032 E66.2979
G0 F6000 X159.407 Y112.599
G1 F1200 X161.662 Y112.085 E66.37483
G1 X162.667 Y110.002 E66.45175
G1 X161.744 Y108.085 E66.52251
G1 X161.48 Y107.873 E66.53378
G1 X159.407 Y107.401 E66.60449
G1 X157.598 Y108.843 E66.68143
G1 X157.598 Y110.965 E66.75201
G1 X157.741 Y111.271 E66.76325
G1 X159.407 Y112.599 E66.83411
G0 F6000 X159.506 Y112.166
;TYPE:WALL-OUTER
G1 F1200 X161.385 Y111.738 E66.8982
G1 X162.223 Y110.002 E66.96232
G1 X161.423 Y108.34 E67.02367
G1 X161.302 Y108.243 E67.02883
G1 X159.506 Y107.834 E67.09009
G1 X157.998 Y109.036 E67.15423
G1 X157.998 Y110.876 E67.21543
G1 X158.064 Y111.017 E67.22061
G1 X159.506 Y112.166 E67.28193
G1 F2700 E62.28193
G0 F6000 X159.319 Y112.4
G0 X157.027 Y111.093
G0 X158.859 Y110.55
G0 X158.859 Y85.55
G0 X157.027 Y86.093
G0 X159.308 Y88.032
;TYPE:WALL-INNER
G1 F2700 E67.28193
G1 F1200 X161.939 Y87.432 E67.37169
G1 X163.111 Y85.002 E67.46142
G1 X162.065 Y82.83 E67.5416
G1 X161.659 Y82.503 E67.55894
G1 X159.308 Y81.968 E67.63913
G1 X157.198 Y83.65 E67.72888
G1 X157.198 Y86.054 E67.80884
G1 X157.418 Y86.525 E67.82613
G1 X159.308 Y88.032 E67.90653
G0 F6000 X159.407 Y87.599
G1 F1200 X161.662 Y87.085 E67.98345
G1 X162.667 Y85.002 E68.06037
G1 X161.744 Y83.085 E68.13114
G1 X161.48 Y82.873 E68.1424
G1 X159.407 Y82.401 E68.21311
G1 X157.598 Y83.843 E68.29006
G1 X157.598 Y85.965 E68.36064
G1 X157.741 Y86.271 E68.37187
G1 X159.407 Y87.599 E68.44273
G0 F6000 X159.506 Y87.166
;TYPE:WALL-OUTER
G1 F1200 X161.385 Y86.738 E68.50683
G1 X162.223 Y85.002 E68.57094
G1 X161.423 Y83.34 E68.63229
G1 X161.302 Y83.243 E68.63745
G1 X159.506 Y82.834 E68.69871
G1 X157.998 Y84.036 E68.76285
G1 X157.998 Y85.876 E68.82405
G1 X158.064 Y86.017 E68.82923
