;FLAVOR:Marlin
;TIME:12228
;Filament used: 7.97703m
;Layer height: 0.2
;MINX:15.5
;MINY:45.5
;MINZ:0.2
;MAXX:204.5
;MAXY:174.5
;MAXZ:21
;Generated with Cura_SteamEngine master
M140 S70
M105
M190 S70
M104 S230
M105
M109 S230
M82 ;absolute extrusion mode
M201 X500.00 Y500.00 Z100.00 E5000.00 ;Setup machine max acceleration
M203 X500.00 Y500.00 Z10.00 E50.00 ;Setup machine max feedrate
M204 P500.00 R1000.00 T500.00 ;Setup Print/Retract/Travel acceleration
M205 X8.00 Y8.00 Z0.40 E5.00 ;Setup Jerk
M220 S100 ;Reset Feedrate
M221 S100 ;Reset Flowrate

G28 ;Home

G92 E0 ;Reset Extruder
G1 Z2.0 F3000 ;Move Z Axis up
G1 X10.1 Y20 Z0.28 F5000.0 ;Move to start position
G1 X10.1 Y200.0 Z0.28 F1500.0 E15 ;Draw the first line
G1 X10.4 Y200.0 Z0.28 F5000.0 ;Move to side a little
G1 X10.4 Y20 Z0.28 F1500.0 E30 ;Draw the second line
G92 E0 ;Reset Extruder
G1 Z2.0 F3000 ;Move Z Axis up

G92 E0
G92 E0
G1 F2700 E-5
;LAYER_COUNT:105
;LAYER:0
M107
G0 F6000 X22.831 Y47.162 Z0.2
;TYPE:SKIRT
G1 F2700 E0
G1 F1200 X23.302 Y46.956 E0.0171
G1 X23.506 Y46.869 E0.02447
G1 X24.154 Y46.601 E0.0478
G1 X24.286 Y46.547 E0.05254
G1 X24.926 Y46.292 E0.07546
G1 X25.812 Y45.983 E0.10666
G1 X26.72 Y45.749 E0.13785
G1 X27.645 Y45.595 E0.16904
G1 X28.799 Y45.513 E0.20752
G1 X29.408 Y45.502 E0.22778
G1 X29.607 Y45.5 E0.2344
G1 X190.293 Y45.5 E5.57884
G1 X190.451 Y45.501 E5.58409
G1 X191.149 Y45.511 E5.60731
G1 X192.085 Y45.565 E5.63849
G1 X193.013 Y45.697 E5.66967
G1 X193.927 Y45.909 E5.70087
G1 X194.991 Y46.263 E5.73817
G1 X195.57 Y46.489 E5.75884
G1 X195.777 Y46.572 E5.76626
G1 X196.294 Y46.786 E5.78487
G1 X196.442 Y46.849 E5.79022
G1 X197.117 Y47.14 E5.81467
G1 X197.961 Y47.547 E5.84583
G1 X198.768 Y48.026 E5.87705
G1 X199.531 Y48.571 E5.90823
G1 X200.245 Y49.179 E5.93943
G1 X200.905 Y49.846 E5.97063
G1 X201.505 Y50.566 E6.00181
G1 X202.042 Y51.335 E6.033
G1 X202.511 Y52.147 E6.06419
G1 X202.849 Y52.852 E6.0902
G1 X203.04 Y53.291 E6.10612
G1 X203.112 Y53.462 E6.11229
G1 X203.374 Y54.093 E6.13501
G1 X203.432 Y54.236 E6.14015
G1 X203.706 Y54.923 E6.16475
G1 X204.016 Y55.808 E6.19594
G1 X204.25 Y56.716 E6.22712
G1 X204.405 Y57.641 E6.25832
G1 X204.487 Y58.799 E6.29693
G1 X204.498 Y59.408 E6.31719
G1 X204.5 Y59.607 E6.32381
G1 X204.5 Y160.293 E9.67264
G1 X204.499 Y160.451 E9.67789
G1 X204.489 Y161.149 E9.70111
G1 X204.435 Y162.085 E9.73229
G1 X204.303 Y163.013 E9.76347
G1 X204.091 Y163.927 E9.79468
G1 X203.737 Y164.992 E9.832
G1 X203.516 Y165.558 E9.85221
G1 X203.435 Y165.758 E9.85939
G1 X203.216 Y166.288 E9.87846
G1 X203.154 Y166.435 E9.88377
G1 X202.864 Y167.109 E9.90817
G1 X202.457 Y167.954 E9.93937
G1 X201.98 Y168.761 E9.97055
G1 X201.435 Y169.524 E10.00173
G1 X200.828 Y170.239 E10.03293
G1 X200.161 Y170.899 E10.06414
G1 X199.441 Y171.5 E10.09533
G1 X198.672 Y172.037 E10.12653
G1 X197.861 Y172.507 E10.1577
G1 X197.167 Y172.84 E10.18331
G1 X196.705 Y173.042 E10.20008
G1 X196.498 Y173.13 E10.20756
G1 X195.859 Y173.394 E10.23055
G1 X195.734 Y173.445 E10.23504
G1 X195.077 Y173.707 E10.25857
G1 X194.191 Y174.016 E10.28978
G1 X193.283 Y174.25 E10.32097
G1 X192.358 Y174.405 E10.35216
G1 X191.201 Y174.487 E10.39074
G1 X190.592 Y174.498 E10.411
G1 X190.393 Y174.5 E10.41762
G1 X29.707 Y174.5 E15.76206
G1 X29.55 Y174.499 E15.76728
G1 X28.851 Y174.489 E15.79053
G1 X27.914 Y174.435 E15.82174
G1 X26.986 Y174.303 E15.85292
G1 X26.072 Y174.091 E15.88413
G1 X25.002 Y173.735 E15.92163
G1 X24.424 Y173.509 E15.94228
G1 X24.21 Y173.422 E15.94996
G1 X23.678 Y173.201 E15.96912
G1 X23.563 Y173.153 E15.97326
G1 X22.903 Y172.87 E15.99715
G1 X22.058 Y172.464 E16.02833
G1 X21.25 Y171.987 E16.05954
G1 X20.486 Y171.444 E16.09071
G1 X19.77 Y170.837 E16.12193
G1 X19.11 Y170.171 E16.15312
G1 X18.508 Y169.452 E16.18431
G1 X17.969 Y168.684 E16.21551
G1 X17.499 Y167.873 E16.24669
G1 X17.151 Y167.148 E16.27344
G1 X16.95 Y166.686 E16.2902
G1 X16.874 Y166.506 E16.29669
G1 X16.602 Y165.849 E16.32035
G1 X16.541 Y165.699 E16.32573
G1 X16.285 Y165.054 E16.34881
G1 X15.976 Y164.168 E16.38002
G1 X15.744 Y163.26 E16.41119
G1 X15.591 Y162.334 E16.44241
G1 X15.51 Y161.16 E16.48155
G1 X15.501 Y160.557 E16.50161
G1 X15.5 Y160.393 E16.50706
G1 X15.5 Y59.707 E19.85589
G1 X15.501 Y59.549 E19.86115
G1 X15.511 Y58.852 E19.88433
G1 X15.565 Y57.916 E19.91551
G1 X15.698 Y56.987 E19.94673
G1 X15.909 Y56.074 E19.97789
G1 X16.265 Y55.004 E20.0154
G1 X16.509 Y54.38 E20.03769
G1 X16.591 Y54.177 E20.04497
G1 X16.796 Y53.682 E20.06279
G1 X16.854 Y53.545 E20.06774
G1 X17.134 Y52.894 E20.09131
G1 X17.541 Y52.049 E20.1225
G1 X18.018 Y51.242 E20.15368
G1 X18.563 Y50.478 E20.18489
G1 X19.17 Y49.763 E20.21609
G1 X19.837 Y49.103 E20.2473
G1 X20.557 Y48.502 E20.27849
G1 X21.325 Y47.965 E20.30966
G1 X22.137 Y47.495 E20.34087
G1 X22.831 Y47.162 E20.36647
G0 F6000 X22.991 Y47.528
G1 F1200 X23.462 Y47.322 E20.38357
G1 X23.659 Y47.239 E20.39068
G1 X24.307 Y46.971 E20.414
G1 X24.435 Y46.919 E20.41859
G1 X25.075 Y46.664 E20.44151
G1 X25.944 Y46.361 E20.47212
G1 X26.836 Y46.134 E20.50273
G1 X27.745 Y45.985 E20.53337
G1 X28.807 Y45.913 E20.56877
G1 X29.416 Y45.902 E20.58903
G1 X29.607 Y45.9 E20.59538
G1 X190.293 Y45.9 E25.93982
G1 X190.445 Y45.901 E25.94488
G1 X191.143 Y45.911 E25.9681
G1 X192.062 Y45.964 E25.99871
G1 X192.973 Y46.097 E26.02933
G1 X193.869 Y46.308 E26.05995
G1 X194.845 Y46.636 E26.0942
G1 X195.424 Y46.862 E26.11487
G1 X195.624 Y46.942 E26.12203
G1 X196.141 Y47.156 E26.14064
G1 X196.283 Y47.216 E26.14577
G1 X196.958 Y47.507 E26.17022
G1 X197.787 Y47.908 E26.20085
G1 X198.578 Y48.379 E26.23147
G1 X199.325 Y48.917 E26.26209
G1 X200.023 Y49.518 E26.29272
G1 X200.665 Y50.177 E26.32332
G1 X201.249 Y50.89 E26.35397
G1 X201.768 Y51.65 E26.38458
G1 X202.219 Y52.453 E26.41522
G1 X202.482 Y53.012 E26.43576
G1 X202.673 Y53.451 E26.45169
G1 X202.743 Y53.615 E26.45762
G1 X203.005 Y54.246 E26.48034
G1 X203.061 Y54.384 E26.4853
G1 X203.335 Y55.071 E26.5099
G1 X203.638 Y55.94 E26.54051
G1 X203.865 Y56.833 E26.57115
G1 X204.014 Y57.741 E26.60176
G1 X204.087 Y58.807 E26.63729
G1 X204.098 Y59.416 E26.65755
G1 X204.1 Y59.607 E26.66391
G1 X204.1 Y160.293 E30.01274
G1 X204.099 Y160.445 E30.01779
G1 X204.089 Y161.143 E30.04101
G1 X204.036 Y162.062 E30.07163
G1 X203.903 Y162.973 E30.10225
G1 X203.692 Y163.869 E30.13286
G1 X203.364 Y164.846 E30.16714
G1 X203.143 Y165.412 E30.18735
G1 X203.066 Y165.605 E30.19426
G1 X202.847 Y166.135 E30.21333
G1 X202.787 Y166.276 E30.21843
G1 X202.497 Y166.95 E30.24284
G1 X202.097 Y167.78 E30.27348
G1 X201.626 Y168.571 E30.3041
G1 X201.088 Y169.318 E30.33472
G1 X200.488 Y170.016 E30.36533
G1 X199.829 Y170.659 E30.39596
G1 X199.117 Y171.243 E30.42658
G1 X198.357 Y171.763 E30.45721
G1 X197.555 Y172.214 E30.48781
G1 X197.006 Y172.473 E30.508
G1 X196.544 Y172.675 E30.52478
G1 X196.346 Y172.76 E30.53194
G1 X195.707 Y173.024 E30.55494
G1 X195.585 Y173.073 E30.55931
G1 X194.928 Y173.335 E30.58284
G1 X194.059 Y173.639 E30.61346
G1 X193.167 Y173.866 E30.64407
G1 X192.258 Y174.014 E30.6747
G1 X191.193 Y174.087 E30.71021
G1 X190.584 Y174.098 E30.73047
G1 X190.393 Y174.1 E30.73682
G1 X29.707 Y174.1 E36.08126
G1 X29.555 Y174.099 E36.08631
G1 X28.856 Y174.089 E36.10956
G1 X27.937 Y174.036 E36.14018
G1 X27.026 Y173.903 E36.1708
G1 X26.13 Y173.692 E36.20142
G1 X25.148 Y173.362 E36.23587
G1 X24.57 Y173.136 E36.25652
G1 X24.364 Y173.053 E36.2639
G1 X23.832 Y172.832 E36.28306
G1 X23.721 Y172.785 E36.28707
G1 X23.061 Y172.502 E36.31096
G1 X22.231 Y172.103 E36.34159
G1 X21.439 Y171.633 E36.37222
G1 X20.691 Y171.097 E36.40282
G1 X19.992 Y170.497 E36.43346
G1 X19.348 Y169.839 E36.46409
G1 X18.764 Y169.128 E36.49469
G1 X18.243 Y168.369 E36.52531
G1 X17.791 Y167.567 E36.55593
G1 X17.518 Y166.989 E36.57719
G1 X17.317 Y166.527 E36.59395
G1 X17.243 Y166.353 E36.60024
G1 X16.971 Y165.696 E36.62389
G1 X16.913 Y165.551 E36.62908
G1 X16.657 Y164.906 E36.65216
G1 X16.354 Y164.037 E36.68277
G1 X16.129 Y163.144 E36.7134
G1 X15.982 Y162.235 E36.74403
G1 X15.91 Y161.154 E36.78006
G1 X15.901 Y160.551 E36.80012
G1 X15.9 Y160.393 E36.80537
G1 X15.9 Y59.707 E40.1542
G1 X15.901 Y59.555 E40.15926
G1 X15.911 Y58.858 E40.18244
G1 X15.964 Y57.939 E40.21306
G1 X16.097 Y57.028 E40.24368
G1 X16.308 Y56.132 E40.2743
G1 X16.638 Y55.15 E40.30875
G1 X16.882 Y54.526 E40.33104
G1 X16.961 Y54.33 E40.33807
G1 X17.166 Y53.835 E40.35589
G1 X17.221 Y53.703 E40.36064
G1 X17.501 Y53.052 E40.38421
G1 X17.902 Y52.223 E40.41484
G1 X18.372 Y51.431 E40.44547
G1 X18.91 Y50.684 E40.47609
G1 X19.51 Y49.986 E40.50671
G1 X20.169 Y49.343 E40.53733
G1 X20.881 Y48.759 E40.56796
G1 X21.64 Y48.239 E40.59856
G1 X22.443 Y47.787 E40.62921
G1 X22.991 Y47.528 E40.64937
G0 F6000 X23.152 Y47.895
G1 F1200 X23.623 Y47.689 E40.66646
G1 X23.812 Y47.608 E40.6733
G1 X24.46 Y47.34 E40.69663
G1 X24.583 Y47.29 E40.70104
G1 X25.223 Y47.035 E40.72396
G1 X26.076 Y46.739 E40.75399
G1 X26.951 Y46.518 E40.784
G1 X27.843 Y46.377 E40.81404
G1 X28.814 Y46.313 E40.84641
G1 X29.423 Y46.302 E40.86666
G1 X29.607 Y46.3 E40.87279
G1 X190.293 Y46.3 E46.21722
G1 X190.439 Y46.301 E46.22208
G1 X191.137 Y46.311 E46.2453
G1 X192.039 Y46.364 E46.27535
G1 X192.932 Y46.496 E46.30537
G1 X193.81 Y46.707 E46.33541
G1 X194.7 Y47.008 E46.36666
G1 X195.279 Y47.234 E46.38733
G1 X195.471 Y47.311 E46.39421
G1 X195.988 Y47.525 E46.41282
G1 X196.125 Y47.583 E46.41777
G1 X196.8 Y47.874 E46.44222
G1 X197.613 Y48.268 E46.47226
G1 X198.387 Y48.732 E46.50228
G1 X199.118 Y49.263 E46.53233
G1 X199.799 Y49.857 E46.56239
G1 X200.424 Y50.508 E46.5924
G1 X200.99 Y51.212 E46.62245
G1 X201.491 Y51.964 E46.6525
G1 X201.923 Y52.757 E46.68253
G1 X202.115 Y53.172 E46.69774
G1 X202.306 Y53.611 E46.71367
G1 X202.373 Y53.769 E46.71937
G1 X202.635 Y54.4 E46.7421
G1 X202.689 Y54.532 E46.74684
G1 X202.963 Y55.219 E46.77144
G1 X203.26 Y56.072 E46.80148
G1 X203.481 Y56.948 E46.83153
G1 X203.623 Y57.84 E46.86157
G1 X203.687 Y58.814 E46.89404
G1 X203.698 Y59.423 E46.9143
G1 X203.7 Y59.607 E46.92042
G1 X203.7 Y160.293 E50.26925
G1 X203.699 Y160.439 E50.2741
G1 X203.689 Y161.137 E50.29732
G1 X203.636 Y162.039 E50.32737
G1 X203.504 Y162.932 E50.3574
G1 X203.293 Y163.81 E50.38743
G1 X202.991 Y164.701 E50.41872
G1 X202.77 Y165.267 E50.43893
G1 X202.696 Y165.452 E50.44556
G1 X202.477 Y165.982 E50.46463
G1 X202.42 Y166.118 E50.46954
G1 X202.13 Y166.792 E50.49394
G1 X201.736 Y167.605 E50.52399
G1 X201.273 Y168.38 E50.55402
G1 X200.742 Y169.111 E50.58407
G1 X200.149 Y169.792 E50.6141
G1 X199.498 Y170.418 E50.64414
G1 X198.794 Y170.984 E50.67419
G1 X198.043 Y171.486 E50.70423
G1 X196.846 Y172.107 E50.74908
G1 X196.384 Y172.309 E50.76585
G1 X196.193 Y172.39 E50.77275
G1 X195.554 Y172.654 E50.79575
G1 X195.437 Y172.701 E50.79994
G1 X194.78 Y172.963 E50.82347
G1 X193.927 Y173.26 E50.85351
G1 X193.052 Y173.481 E50.88352
G1 X192.16 Y173.623 E50.91357
G1 X191.186 Y173.687 E50.94603
G1 X190.577 Y173.698 E50.96629
G1 X190.393 Y173.7 E50.97241
G1 X29.707 Y173.7 E56.31685
G1 X29.561 Y173.699 E56.3217
G1 X28.862 Y173.689 E56.34496
G1 X27.961 Y173.636 E56.37498
G1 X27.067 Y173.504 E56.40503
G1 X26.189 Y173.293 E56.43507
G1 X25.294 Y172.99 E56.46649
G1 X24.716 Y172.764 E56.48714
G1 X24.517 Y172.684 E56.49427
G1 X23.985 Y172.463 E56.51343
G1 X23.878 Y172.418 E56.51729
G1 X23.218 Y172.135 E56.54117
G1 X22.405 Y171.742 E56.57121
G1 X21.629 Y171.28 E56.60125
G1 X20.898 Y170.75 E56.63128
G1 X20.216 Y170.158 E56.66131
G1 X19.589 Y169.508 E56.69135
G1 X19.022 Y168.805 E56.72139
G1 X18.52 Y168.054 E56.75144
G1 X18.085 Y167.262 E56.78149
G1 X17.885 Y166.829 E56.79735
G1 X17.684 Y166.367 E56.81411
G1 X17.613 Y166.2 E56.82015
G1 X17.341 Y165.543 E56.8438
G1 X17.284 Y165.404 E56.84879
G1 X17.028 Y164.759 E56.87188
G1 X16.733 Y163.905 E56.90193
G1 X16.514 Y163.029 E56.93196
G1 X16.373 Y162.137 E56.962
G1 X16.31 Y161.148 E56.99496
G1 X16.301 Y160.545 E57.01501
G1 X16.3 Y160.393 E57.02007
G1 X16.3 Y59.707 E60.3689
G1 X16.301 Y59.561 E60.37376
G1 X16.311 Y58.864 E60.39694
G1 X16.364 Y57.962 E60.42699
G1 X16.496 Y57.069 E60.45702
G1 X16.707 Y56.191 E60.48705
G1 X17.01 Y55.295 E60.51851
G1 X17.254 Y54.671 E60.54079
G1 X17.33 Y54.483 E60.54754
G1 X17.535 Y53.988 E60.56536
G1 X17.589 Y53.861 E60.56995
G1 X17.869 Y53.21 E60.59352
G1 X18.262 Y52.397 E60.62355
G1 X18.726 Y51.622 E60.6536
G1 X19.256 Y50.891 E60.68363
G1 X19.849 Y50.21 E60.71366
G1 X20.5 Y49.583 E60.74372
G1 X21.203 Y49.017 E60.77374
G1 X21.954 Y48.516 E60.80377
G1 X23.152 Y47.895 E60.84865
G1 F2700 E55.84865
;MESH:top.stl
G0 F6000 X53.875 Y68.602
G0 X105.347 Y68.653
G0 X105.408 Y103.335
G0 X175.139 Y150.335
G0 X175.139 Y152.17
G0 X183.726 Y152.206
G0 X181.889 Y154.998
;TYPE:WALL-INNER
G1 F2700 E60.84865
G1 F1200 X182.928 Y157.159 E60.9284
G1 X183.345 Y157.497 E60.94625
G1 X185.692 Y158.032 E61.02632
G1 X187.802 Y156.35 E61.11607
G1 X187.802 Y153.951 E61.19586
G1 X187.573 Y153.467 E61.21367
G1 X186.177 Y152.355 E61.27303
G1 X185.732 Y152 E61.29196
G1 X186.301 Y152 E61.30196
G1 X186.302 Y152 E61.30199
G1 X189 Y152 E61.39172
G1 X189 Y67 E64.21884
G1 X187.557 Y67 E64.26683
G1 X187.556 Y67 E64.26686
G1 X186.987 Y67 E64.28579
G1 X187.432 Y66.645 E64.29579
G1 X187.802 Y66.35 E64.31153
G1 X187.802 Y63.951 E64.39132
G1 X187.573 Y63.467 E64.40913
G1 X185.692 Y61.968 E64.48912
G1 X183.061 Y62.568 E64.57888
G1 X181.889 Y64.998 E64.66861
G1 X182.715 Y66.715 E64.73198
G1 X182.852 Y67 E64.7425
G1 X182.536 Y67 E64.74856
G1 X182.535 Y67 E64.7486
G1 X113 Y67 E67.06134
G1 X113 Y108.504 E68.44177
G1 X113 Y108.951 E68.45663
G1 X113 Y111.35 E68.53643
G1 X113 Y111.558 E68.54334
G1 X113 Y152 E69.88845
G1 X183.78 Y152 E72.2426
G1 X185.552 Y152 E72.30154
G1 X183.824 Y152.394 E72.3312
G1 X183.061 Y152.568 E72.35723
G1 X181.889 Y154.998 E72.44696
G0 F6000 X182.333 Y154.998
G1 F1200 X183.25 Y156.905 E72.51734
G1 X183.525 Y157.128 E72.52911
G1 X185.593 Y157.599 E72.59966
G1 X187.402 Y156.157 E72.6766
G1 X187.402 Y154.041 E72.74698
G1 X187.251 Y153.722 E72.75872
G1 X185.593 Y152.401 E72.82923
G1 X183.338 Y152.915 E72.90615
G1 X182.333 Y154.998 E72.98307
G0 F6000 X182.777 Y154.998
;TYPE:WALL-OUTER
G1 F1200 X183.572 Y156.651 E73.04408
G1 X183.705 Y156.759 E73.04978
G1 X185.494 Y157.166 E73.1108
G1 X187.002 Y155.964 E73.17494
G1 X187.002 Y154.131 E73.23591
G1 X186.929 Y153.977 E73.24158
G1 X185.494 Y152.834 E73.30259
G1 X183.615 Y153.262 E73.36669
G1 X182.777 Y154.998 E73.43081
G1 F2700 E68.43081
G0 F6000 X182.597 Y154.911
G0 X183.726 Y152.206
G0 X188.328 Y151.328
G0 X188.328 Y67.672
G0 X185.843 Y67.4
;TYPE:WALL-INNER
G1 F2700 E73.43081
G1 F1200 X186.288 Y67.045 E73.44974
G1 X187.402 Y66.157 E73.49712
G1 X187.402 Y64.041 E73.5675
G1 X187.251 Y63.722 E73.57924
G1 X185.593 Y62.401 E73.64975
G1 X183.338 Y62.915 E73.72667
G1 X182.333 Y64.998 E73.8036
G1 X183.25 Y66.905 E73.87398
G1 X183.386 Y67.016 E73.87981
G1 X183.525 Y67.128 E73.88575
G1 X184.719 Y67.4 E73.92648
G1 X183.525 Y67.4 E73.93985
G1 X183.346 Y67.4 E73.94491
G1 X113.4 Y67.4 E76.27133
G1 X113.4 Y151.6 E79.07183
G1 X188.6 Y151.6 E81.57299
G1 X188.6 Y67.4 E84.3735
G1 X186.413 Y67.4 E84.44624
G1 X186.412 Y67.4 E84.44627
G1 X185.843 Y67.4 E84.45626
G0 F6000 X185.494 Y67.166
;TYPE:WALL-OUTER
G1 F1200 X187.002 Y65.964 E84.5204
G1 X187.002 Y64.131 E84.58137
G1 X186.929 Y63.977 E84.58704
G1 X185.494 Y62.834 E84.64806
G1 X183.615 Y63.262 E84.71215
G1 X182.777 Y64.998 E84.77627
G1 X183.572 Y66.651 E84.83728
G1 X183.705 Y66.759 E84.84297
G1 X185.494 Y67.166 E84.904
G1 F2700 E79.904
G0 F6000 X185.449 Y67.36
G0 X112.829 Y67.183
G0 X112.798 Y108.474
G0 X110.736 Y106.779
G0 X107.202 Y108.889
G0 X107.168 Y67.17
G0 X36.987 Y67
;TYPE:WALL-INNER
G1 F2700 E84.904
G1 F1200 X37.432 Y66.645 E84.92293
G1 X37.802 Y66.35 E84.93867
G1 X37.802 Y63.951 E85.01846
G1 X37.573 Y63.467 E85.03627
G1 X35.692 Y61.968 E85.11627
G1 X33.061 Y62.568 E85.20602
G1 X31.889 Y64.998 E85.29575
G1 X32.715 Y66.715 E85.35913
G1 X32.852 Y67 E85.36964
G1 X32.536 Y67 E85.3757
G1 X32.535 Y67 E85.37574
G1 X31 Y67 E85.42679
G1 X31 Y152 E88.2539
G1 X33.78 Y152 E88.34637
G1 X35.552 Y152 E88.4053
G1 X33.824 Y152.394 E88.43496
G1 X33.061 Y152.568 E88.46099
G1 X31.889 Y154.998 E88.55072
G1 X32.928 Y157.159 E88.63047
G1 X33.345 Y157.497 E88.64833
