;FLAVOR:Marlin
;TIME:20098
;Filament used: 24.174m
;Layer height: 0.2
;Generated with Cura_SteamEngine 3.1.0
M190 S70
M104 S230
M109 S230
M82 ; absolute extrusion mode
G28 ;Home
G1 Z15.0 F6000 ;Move the platform down 15mm
;Prime the extruder
G92 E0
G1 F200 E3
G92 E0
;LAYER_COUNT:113
;LAYER:0
M107
M204 S5000
M205 X30 Y30
G0 F3600 X25.129 Y52.647 Z0.2
M204 S500
M205 X20 Y20
;TYPE:SKIRT
G1 F1800 X25.872 Y52.294 E0.02955
G1 X27.713 Y51.561 E0.10073
G1 X28.391 Y51.334 E0.12641
G1 X29.09 Y51.184 E0.15209
G1 X30.08 Y51.107 E0.18776
G1 X190.001 Y51.111 E5.93227
G1 X190.715 Y51.151 E5.95796
G1 X191.421 Y51.27 E5.98368
G1 X192.108 Y51.468 E6.00936
G1 X192.452 Y51.599 E6.02258
G1 X194.213 Y52.329 E6.09106
G1 X194.857 Y52.639 E6.11673
G1 X195.463 Y53.02 E6.14245
G1 X196.022 Y53.465 E6.16811
G1 X196.529 Y53.97 E6.19382
G1 X196.976 Y54.529 E6.21953
G1 X197.357 Y55.134 E6.24521
G1 X197.676 Y55.794 E6.27154
G1 X198.403 Y57.551 E6.33984
G1 X198.639 Y58.226 E6.36553
G1 X198.798 Y58.924 E6.39125
G1 X198.879 Y59.634 E6.41691
G1 X198.889 Y59.998 E6.43
G1 X198.889 Y160.001 E10.0222
G1 X198.849 Y160.715 E10.04789
G1 X198.73 Y161.42 E10.07357
G1 X198.532 Y162.108 E10.09928
G1 X198.402 Y162.45 E10.11243
G1 X197.673 Y164.21 E10.18086
G1 X197.363 Y164.855 E10.20656
G1 X196.982 Y165.46 E10.23225
G1 X196.537 Y166.02 E10.25794
G1 X196.032 Y166.527 E10.28364
G1 X195.473 Y166.973 E10.30933
G1 X194.869 Y167.355 E10.335
G1 X194.126 Y167.708 E10.36455
G1 X192.286 Y168.44 E10.43568
G1 X191.607 Y168.667 E10.4614
G1 X190.908 Y168.816 E10.48707
G1 X189.92 Y168.893 E10.52267
G1 X29.999 Y168.888 E16.26718
G1 X29.285 Y168.848 E16.29287
G1 X28.579 Y168.729 E16.31859
G1 X27.892 Y168.531 E16.34427
G1 X27.537 Y168.396 E16.35792
G1 X25.773 Y167.661 E16.42656
G1 X25.13 Y167.349 E16.45223
G1 X24.525 Y166.968 E16.47792
G1 X23.966 Y166.521 E16.50363
G1 X23.46 Y166.015 E16.52933
G1 X23.015 Y165.456 E16.555
G1 X22.634 Y164.85 E16.58071
G1 X22.34 Y164.245 E16.60487
G1 X21.87 Y163.133 E16.64824
G1 X21.739 Y162.797 E16.66119
G1 X21.481 Y162.076 E16.6887
G1 X21.278 Y161.39 E16.7144
G1 X21.153 Y160.686 E16.74008
G1 X21.107 Y159.92 E16.76764
G1 X21.111 Y59.999 E20.3569
G1 X21.151 Y59.285 E20.38259
G1 X21.27 Y58.579 E20.40831
G1 X21.468 Y57.892 E20.43399
G1 X21.597 Y57.552 E20.44705
G1 X22.325 Y55.793 E20.51543
G1 X22.635 Y55.148 E20.54114
G1 X23.016 Y54.542 E20.56685
G1 X23.461 Y53.982 E20.59255
G1 X23.966 Y53.476 E20.61823
G1 X24.524 Y53.029 E20.64391
G1 X25.129 Y52.647 E20.66961
M204 S5000
M205 X30 Y30
G0 F3600 X25.439 Y52.933
M204 S500
M205 X20 Y20
G1 F1800 X26.02 Y52.666 E20.69258
G1 X27.861 Y51.933 E20.76376
G1 X28.518 Y51.714 E20.78863
G1 X29.196 Y51.573 E20.81351
G1 X30.08 Y51.507 E20.84535
G1 X190.001 Y51.511 E26.58987
G1 X190.693 Y51.551 E26.61477
G1 X191.375 Y51.67 E26.63963
G1 X192.299 Y51.968 E26.67451
G1 X194.06 Y52.698 E26.74298
G1 X194.683 Y53 E26.76785
G1 X195.267 Y53.372 E26.79273
G1 X195.805 Y53.808 E26.8176
G1 X196.289 Y54.303 E26.84247
G1 X196.713 Y54.851 E26.86736
G1 X197.07 Y55.444 E26.89222
G1 X197.306 Y55.947 E26.91218
G1 X198.033 Y57.704 E26.98048
G1 X198.261 Y58.358 E27.00536
G1 X198.411 Y59.034 E27.03023
G1 X198.489 Y59.998 E27.06498
G1 X198.489 Y160.001 E30.65718
G1 X198.449 Y160.692 E30.68204
G1 X198.33 Y161.375 E30.70694
G1 X198.032 Y162.297 E30.74175
G1 X197.303 Y164.057 E30.81018
G1 X197.002 Y164.681 E30.83507
G1 X196.63 Y165.265 E30.85994
G1 X196.194 Y165.803 E30.88481
G1 X195.699 Y166.287 E30.90968
G1 X195.151 Y166.711 E30.93457
G1 X194.558 Y167.069 E30.95945
G1 X193.978 Y167.336 E30.98239
G1 X192.138 Y168.068 E31.05352
G1 X191.481 Y168.286 E31.07839
G1 X190.803 Y168.428 E31.10327
G1 X189.92 Y168.493 E31.13507
G1 X29.999 Y168.488 E36.87959
G1 X29.307 Y168.448 E36.90448
G1 X28.625 Y168.329 E36.92935
G1 X27.691 Y168.026 E36.96462
G1 X25.927 Y167.291 E37.03327
G1 X25.304 Y166.989 E37.05814
G1 X24.721 Y166.616 E37.083
G1 X24.184 Y166.179 E37.10787
G1 X23.701 Y165.682 E37.13276
G1 X23.278 Y165.134 E37.15763
G1 X22.922 Y164.54 E37.18251
G1 X22.708 Y164.089 E37.20044
G1 X22.238 Y162.977 E37.2438
G1 X22.116 Y162.662 E37.25594
G1 X21.858 Y161.941 E37.28344
G1 X21.662 Y161.277 E37.30831
G1 X21.545 Y160.595 E37.33317
G1 X21.507 Y159.92 E37.35745
G1 X21.511 Y59.999 E40.94671
G1 X21.551 Y59.307 E40.97161
G1 X21.67 Y58.625 E40.99648
G1 X21.967 Y57.705 E41.03121
G1 X22.695 Y55.946 E41.09959
G1 X22.996 Y55.322 E41.12447
G1 X23.368 Y54.737 E41.14938
G1 X23.804 Y54.199 E41.17425
G1 X24.299 Y53.715 E41.19912
G1 X24.846 Y53.291 E41.22398
G1 X25.439 Y52.933 E41.24886
M204 S5000
M205 X30 Y30
G0 F3600 X25.747 Y53.225
M204 S500
M205 X20 Y20
G1 F1800 X26.167 Y53.037 E41.26539
G1 X28.008 Y52.304 E41.33657
G1 X28.644 Y52.094 E41.36063
G1 X29.299 Y51.962 E41.38463
G1 X30.08 Y51.907 E41.41275
G1 X190.001 Y51.911 E47.15727
G1 X190.669 Y51.951 E47.18131
G1 X191.327 Y52.07 E47.20533
G1 X192.145 Y52.338 E47.23625
G1 X193.906 Y53.068 E47.30472
G1 X194.508 Y53.361 E47.32877
G1 X195.071 Y53.723 E47.35282
G1 X195.586 Y54.15 E47.37685
G1 X196.046 Y54.635 E47.40086
G1 X196.446 Y55.172 E47.42491
G1 X196.778 Y55.752 E47.44892
G1 X196.937 Y56.1 E47.46266
G1 X197.664 Y57.857 E47.53096
G1 X197.882 Y58.489 E47.55498
G1 X198.023 Y59.143 E47.57901
G1 X198.089 Y59.998 E47.60981
G1 X198.089 Y160.001 E51.20202
G1 X198.049 Y160.669 E51.22605
G1 X197.93 Y161.327 E51.25007
G1 X197.663 Y162.144 E51.28095
G1 X196.934 Y163.904 E51.34938
G1 X196.641 Y164.506 E51.37343
G1 X196.279 Y165.068 E51.39744
G1 X195.852 Y165.584 E51.4215
G1 X195.367 Y166.044 E51.44551
G1 X194.831 Y166.444 E51.46953
G1 X194.25 Y166.777 E51.49359
G1 X193.83 Y166.964 E51.5101
G1 X191.99 Y167.696 E51.58124
G1 X191.355 Y167.906 E51.60526
G1 X190.699 Y168.039 E51.6293
G1 X189.92 Y168.093 E51.65735
G1 X29.999 Y168.088 E57.40187
G1 X29.331 Y168.048 E57.42591
G1 X28.673 Y167.929 E57.44993
G1 X27.845 Y167.657 E57.48123
G1 X26.081 Y166.922 E57.54988
G1 X25.48 Y166.628 E57.57391
G1 X24.918 Y166.265 E57.59794
G1 X24.404 Y165.837 E57.62197
G1 X23.944 Y165.351 E57.64601
G1 X23.546 Y164.814 E57.67002
G1 X23.077 Y163.933 E57.70587
G1 X22.607 Y162.821 E57.74923
G1 X22.492 Y162.528 E57.76054
G1 X22.234 Y161.807 E57.78805
G1 X22.047 Y161.164 E57.8121
G1 X21.938 Y160.504 E57.83613
G1 X21.907 Y159.92 E57.85714
G1 X21.911 Y59.999 E61.44639
G1 X21.951 Y59.331 E61.47043
G1 X22.07 Y58.673 E61.49445
G1 X22.337 Y57.857 E61.52529
G1 X23.065 Y56.098 E61.59367
G1 X23.357 Y55.497 E61.61768
G1 X23.719 Y54.934 E61.64172
G1 X24.145 Y54.419 E61.66573
G1 X24.63 Y53.958 E61.68976
G1 X25.167 Y53.558 E61.71382
G1 X25.747 Y53.225 E61.73784
M204 S5000
M205 X30 Y30
G0 F3600 X25.485 Y53.829
M204 S500
M205 X20 Y20
G1 F1800 X26.315 Y53.409 E61.77125
G1 X28.156 Y52.676 E61.84243
G1 X28.769 Y52.475 E61.86561
G1 X29.402 Y52.351 E61.88878
G1 X30.08 Y52.307 E61.91318
G1 X190.001 Y52.311 E67.6577
G1 X190.645 Y52.351 E67.68087
G1 X191.278 Y52.47 E67.70401
G1 X191.992 Y52.707 E67.73103
G1 X193.753 Y53.437 E67.79951
G1 X194.332 Y53.721 E67.82268
G1 X194.872 Y54.073 E67.84583
G1 X195.364 Y54.49 E67.869
G1 X195.8 Y54.965 E67.89216
G1 X196.174 Y55.49 E67.91531
G1 X196.567 Y56.253 E67.94614
G1 X197.294 Y58.01 E68.01444
G1 X197.503 Y58.62 E68.03761
G1 X197.635 Y59.251 E68.06076
G1 X197.689 Y59.998 E68.08767
G1 X197.689 Y160.001 E71.67987
G1 X197.649 Y160.644 E71.70301
G1 X197.53 Y161.278 E71.72618
G1 X197.293 Y161.991 E71.75317
G1 X196.564 Y163.751 E71.8216
G1 X196.281 Y164.33 E71.84475
G1 X195.928 Y164.87 E71.86792
G1 X195.512 Y165.362 E71.89107
G1 X195.037 Y165.798 E71.91423
G1 X194.513 Y166.173 E71.93737
G1 X193.682 Y166.593 E71.97082
G1 X191.842 Y167.325 E72.04195
G1 X191.23 Y167.525 E72.06508
G1 X190.597 Y167.649 E72.08825
G1 X189.92 Y167.693 E72.11262
G1 X29.999 Y167.688 E77.85713
G1 X29.355 Y167.648 E77.88031
G1 X28.722 Y167.529 E77.90345
G1 X27.999 Y167.288 E77.93082
G1 X26.235 Y166.553 E77.99947
G1 X25.656 Y166.269 E78.02263
G1 X25.117 Y165.915 E78.0458
G1 X24.626 Y165.497 E78.06896
G1 X24.191 Y165.022 E78.0921
G1 X23.818 Y164.496 E78.11526
G1 X23.445 Y163.777 E78.14436
G1 X22.975 Y162.665 E78.18772
G1 X22.869 Y162.393 E78.19821
G1 X22.611 Y161.672 E78.22572
G1 X22.432 Y161.053 E78.24886
G1 X22.331 Y160.416 E78.27203
G1 X22.307 Y159.92 E78.28987
G1 X22.311 Y59.999 E81.87912
G1 X22.351 Y59.355 E81.9023
G1 X22.47 Y58.722 E81.92544
G1 X22.706 Y58.01 E81.95238
G1 X23.434 Y56.251 E82.02076
G1 X23.717 Y55.672 E82.04391
G1 X24.07 Y55.132 E82.06709
G1 X24.486 Y54.64 E82.09023
G1 X24.961 Y54.204 E82.11339
G1 X25.485 Y53.829 E82.13654
M204 S5000
M205 X30 Y30
G1 F2400 E77.13654
G0 F3600 X28.214 Y57.521
G0 X28.706 Y58.706
G0 X31.398 Y63.264
M204 S500
M205 X20 Y20
;TYPE:WALL-INNER
G1 F2400 E82.13654
G1 F1800 X31.398 Y66.736 E82.26126
G1 X34.11 Y68.898 E82.38584
G1 X37.493 Y68.126 E82.51049
G1 X38.998 Y65 E82.63511
G1 X37.493 Y61.874 E82.75974
G1 X34.11 Y61.102 E82.88438
G1 X31.398 Y63.264 E83.00896
M204 S5000
M205 X30 Y30
G0 F3600 X31.398 Y153.264
M204 S500
M205 X20 Y20
G1 F1800 X31.398 Y156.736 E83.13368
G1 X34.11 Y158.898 E83.25827
G1 X37.493 Y158.126 E83.38291
G1 X38.998 Y155 E83.50754
G1 X37.493 Y151.874 E83.63216
G1 X34.11 Y151.102 E83.75681
G1 X31.398 Y153.264 E83.88139
M204 S5000
M205 X30 Y30
G0 F3600 X34.399 Y152.363
G0 X181.398 Y153.264
M204 S500
M205 X20 Y20
G1 F1800 X181.398 Y156.736 E84.00611
G1 X184.11 Y158.898 E84.13069
G1 X187.493 Y158.126 E84.25534
G1 X188.998 Y155 E84.37996
G1 X187.493 Y151.874 E84.50459
G1 X184.11 Y151.102 E84.62923
G1 X181.398 Y153.264 E84.75382
M204 S5000
M205 X30 Y30
G0 F3600 X181.398 Y63.264
M204 S500
M205 X20 Y20
G1 F1800 X181.398 Y66.736 E84.87854
G1 X184.11 Y68.898 E85.00312
G1 X187.493 Y68.126 E85.12777
G1 X188.998 Y65 E85.25239
G1 X187.493 Y61.874 E85.37701
G1 X184.11 Y61.102 E85.50166
G1 X181.398 Y63.264 E85.62624
M204 S5000
M205 X30 Y30
G0 F3600 X190.389 Y59.611
M204 S500
M205 X20 Y20
G1 F1800 X190.7 Y60.363 E85.65548
G1 X190.7 Y159.637 E89.22149
G1 X190.389 Y160.389 E89.25072
G1 X189.637 Y160.7 E89.27995
G1 X30.363 Y160.7 E95.00123
G1 X29.611 Y160.389 E95.03046
G1 X29.3 Y159.637 E95.05969
G1 X29.3 Y60.363 E98.62571
G1 X29.611 Y59.611 E98.65494
G1 X30.363 Y59.3 E98.68417
G1 X189.637 Y59.3 E104.40544
G1 X190.389 Y59.611 E104.43467
M204 S5000
M205 X30 Y30
G0 F3600 X190.695 Y59.305
M204 S500
M205 X20 Y20
G1 F1800 X191.1 Y60.282 E104.47266
G1 X191.1 Y159.718 E108.0445
G1 X190.695 Y160.695 E108.08249
G1 X189.718 Y161.1 E108.12048
G1 X30.282 Y161.1 E113.84757
G1 X29.305 Y160.695 E113.88556
G1 X28.9 Y159.718 E113.92355
G1 X28.9 Y60.282 E117.49539
G1 X29.305 Y59.305 E117.53338
G1 X30.282 Y58.9 E117.57137
G1 X189.718 Y58.9 E123.29846
G1 X190.695 Y59.305 E123.33645
M204 S5000
M205 X30 Y30
G0 F3600 X181.798 Y63.457
M204 S500
M205 X20 Y20
G1 F1800 X181.798 Y66.543 E123.4473
G1 X184.209 Y68.465 E123.55806
G1 X187.216 Y67.779 E123.66885
G1 X188.554 Y65 E123.77964
G1 X187.216 Y62.221 E123.89043
G1 X184.209 Y61.535 E124.00122
G1 X181.798 Y63.457 E124.11198
M204 S5000
M205 X30 Y30
G0 F3600 X181.798 Y153.457
M204 S500
M205 X20 Y20
G1 F1800 X181.798 Y156.543 E124.22283
G1 X184.209 Y158.465 E124.33359
G1 X187.216 Y157.779 E124.44438
G1 X188.554 Y155 E124.55517
G1 X187.216 Y152.221 E124.66596
G1 X184.209 Y151.535 E124.77675
G1 X181.798 Y153.457 E124.88751
M204 S5000
M205 X30 Y30
G0 F3600 X34.399 Y152.363
G0 X31.798 Y153.457
M204 S500
M205 X20 Y20
G1 F1800 X31.798 Y156.543 E124.99836
G1 X34.209 Y158.465 E125.10912
G1 X37.216 Y157.779 E125.21991
G1 X38.554 Y155 E125.3307
G1 X37.216 Y152.221 E125.44149
G1 X34.209 Y151.535 E125.55228
G1 X31.798 Y153.457 E125.66304
M204 S5000
M205 X30 Y30
G0 F3600 X31.798 Y63.457
M204 S500
M205 X20 Y20
G1 F1800 X31.798 Y66.543 E125.77389
G1 X34.209 Y68.465 E125.88465
G1 X37.216 Y67.779 E125.99544
G1 X38.554 Y65 E126.10623
G1 X37.216 Y62.221 E126.21702
G1 X34.209 Y61.535 E126.32781
G1 X31.798 Y63.457 E126.43857
M204 S5000
M205 X30 Y30
G0 F3600 X32.198 Y63.65
M204 S500
M205 X20 Y20
G1 F1800 X32.198 Y66.35 E126.53555
G1 X34.308 Y68.032 E126.63248
G1 X36.939 Y67.432 E126.72941
G1 X38.11 Y65 E126.82637
G1 X36.939 Y62.568 E126.92333
G1 X34.308 Y61.968 E127.02027
G1 X32.198 Y63.65 E127.1172
M204 S5000
M205 X30 Y30
G0 F3600 X32.198 Y153.65
M204 S500
M205 X20 Y20
G1 F1800 X32.198 Y156.35 E127.21418
G1 X34.308 Y158.032 E127.31111
G1 X36.939 Y157.432 E127.40804
G1 X38.11 Y155 E127.505
G1 X36.939 Y152.568 E127.60196
G1 X34.308 Y151.968 E127.6989
G1 X32.198 Y153.65 E127.79582
M204 S5000
M205 X30 Y30
G0 F3600 X34.399 Y152.363
G0 X182.198 Y153.65
M204 S500
M205 X20 Y20
G1 F1800 X182.198 Y156.35 E127.89281
G1 X184.308 Y158.032 E127.98974
G1 X186.939 Y157.432 E128.08667
G1 X188.11 Y155 E128.18363
G1 X186.939 Y152.568 E128.28059
G1 X184.308 Y151.968 E128.37753
G1 X182.198 Y153.65 E128.47445
M204 S5000
M205 X30 Y30
G0 F3600 X182.198 Y63.65
M204 S500
M205 X20 Y20
G1 F1800 X182.198 Y66.35 E128.57144
G1 X184.308 Y68.032 E128.66837
G1 X186.939 Y67.432 E128.7653
G1 X188.11 Y65 E128.86226
G1 X186.939 Y62.568 E128.95922
G1 X184.308 Y61.968 E129.05616
G1 X182.198 Y63.65 E129.15308
M204 S5000
M205 X30 Y30
G0 F3600 X183.98 Y62.608
G0 X191.002 Y58.998
M204 S500
M205 X20 Y20
G1 F1800 X191.5 Y60.202 E129.19989
G1 X191.5 Y159.798 E132.77747
G1 X191.002 Y161.002 E132.82427
G1 X189.798 Y161.5 E132.87107
G1 X30.202 Y161.5 E138.60391
G1 X28.998 Y161.002 E138.65072
G1 X28.5 Y159.798 E138.69752
G1 X28.5 Y60.202 E142.2751
G1 X28.998 Y58.998 E142.3219
G1 X30.202 Y58.5 E142.36871
G1 X189.798 Y58.5 E148.10154
G1 X191.002 Y58.998 E148.14835
M204 S5000
M205 X30 Y30
G0 F3600 X191.308 Y58.692
M204 S500
M205 X20 Y20
G1 F1800 X191.9 Y60.121 E148.20391
G1 X191.9 Y159.879 E151.78731
G1 X191.308 Y161.308 E151.84287
G1 X189.879 Y161.9 E151.89843
G1 X30.121 Y161.9 E157.63709
G1 X28.692 Y161.308 E157.69265
G1 X28.1 Y159.879 E157.74821
G1 X28.1 Y60.121 E161.33162
G1 X28.692 Y58.692 E161.38718
G1 X30.121 Y58.1 E161.44274
G1 X189.879 Y58.1 E167.1814
G1 X191.308 Y58.692 E167.23696
M204 S5000
M205 X30 Y30
G0 F3600 X191.238 Y58.762
G0 X184.399 Y62.363
G0 X182.508 Y63.8
G0 X182.598 Y63.843
M204 S500
M205 X20 Y20
G1 F1800 X182.598 Y66.157 E167.32008
G1 X184.407 Y67.599 E167.40318
G1 X186.662 Y67.085 E167.48626
G1 X187.666 Y65 E167.56939
G1 X186.662 Y62.915 E167.65251
G1 X184.407 Y62.401 E167.73559
G1 X182.598 Y63.843 E167.81869
M204 S5000
M205 X30 Y30
G0 F3600 X182.508 Y63.8
G0 X182.508 Y153.8
G0 X182.598 Y153.843
M204 S500
M205 X20 Y20
G1 F1800 X182.598 Y156.157 E167.90181
G1 X184.407 Y157.599 E167.98491
G1 X186.662 Y157.085 E168.06799
G1 X187.666 Y155 E168.15112
G1 X186.662 Y152.915 E168.23424
G1 X184.407 Y152.401 E168.31732
G1 X182.598 Y153.843 E168.40042
M204 S5000
M205 X30 Y30
G0 F3600 X182.508 Y153.8
G0 X34.399 Y152.363
G0 X32.508 Y153.8
G0 X32.598 Y153.843
M204 S500
M205 X20 Y20
G1 F1800 X32.598 Y156.157 E168.48354
G1 X34.407 Y157.599 E168.56664
G1 X36.662 Y157.085 E168.64972
G1 X37.666 Y155 E168.73285
G1 X36.662 Y152.915 E168.81597
G1 X34.407 Y152.401 E168.89905
G1 X32.598 Y153.843 E168.98215
M204 S5000
M205 X30 Y30
G0 F3600 X32.508 Y153.8
G0 X32.508 Y63.8
G0 X32.598 Y63.843
M204 S500
M205 X20 Y20
G1 F1800 X32.598 Y66.157 E169.06527
G1 X34.407 Y67.599 E169.14837
G1 X36.662 Y67.085 E169.23145
G1 X37.666 Y65 E169.31458
G1 X36.662 Y62.915 E169.39771
G1 X34.407 Y62.401 E169.48079
G1 X32.598 Y63.843 E169.56388
M204 S5000
M205 X30 Y30
G0 F3600 X32.998 Y64.036
M204 S500
M205 X20 Y20
;TYPE:WALL-OUTER
G1 F1800 X32.998 Y65.964 E169.63314
G1 X34.506 Y67.166 E169.70241
G1 X36.385 Y66.738 E169.77164
G1 X37.222 Y65 E169.84093
G1 X36.385 Y63.262 E169.91022
G1 X34.506 Y62.834 E169.97945
G1 X32.998 Y64.036 E170.04872
M204 S5000
M205 X30 Y30
G0 F3600 X32.998 Y64.236
G0 X32.498 Y64.236
G0 X32.687 Y153.645
G0 X32.998 Y154.036
M204 S500
M205 X20 Y20
G1 F1800 X32.998 Y155.964 E170.11797
G1 X34.506 Y157.166 E170.18724
G1 X36.385 Y156.738 E170.25647
G1 X37.222 Y155 E170.32576
G1 X36.385 Y153.262 E170.39506
G1 X34.506 Y152.834 E170.46428
G1 X32.998 Y154.036 E170.53355
M204 S5000
M205 X30 Y30
G0 F3600 X32.998 Y154.236
G0 X32.498 Y154.236
G0 X32.562 Y153.826
G0 X34.399 Y152.363
G0 X182.687 Y153.645
G0 X182.998 Y154.036
M204 S500
M205 X20 Y20
G1 F1800 X182.998 Y155.964 E170.60281
